devices/symbolic/colorimeter-colorhug-symbolic.svg

<svg xmlns="http://www.w3.org/2000/svg" viewBox="0 0 16 16">
  <defs id="defs3051">
    <style type="text/css" id="current-color-scheme">
      .ColorScheme-Text {
        color:#4d4d4d;
      }
      </style>
  </defs>
 <path 
     style="fill:#bebebe;fill-opacity:1;stroke:none" 
     class="ColorScheme-Text"
     d="M 7.0625 0.009765625 C 6.6082 0.059265625 6.17853 0.23116563 5.8125 0.50976562 C 5.32446 0.88122563 5 1.4646256 5 2.1972656 L 5 6.0097656 L 2.7265625 6.0097656 C 2.3238045 6.0097656 2 6.3335701 2 6.7363281 L 2 13.28125 C 2 13.684008 2.3238045 14.009766 2.7265625 14.009766 L 8.2734375 14.009766 C 8.6761955 14.009766 9 13.684008 9 13.28125 L 9 6.7363281 C 9 6.3335701 8.6761955 6.0097656 8.2734375 6.0097656 L 6 6.0097656 L 6 2.1972656 C 6 1.7481656 6.17164 1.4933756 6.4375 1.2910156 C 6.70336 1.0886556 7.10126 0.99078563 7.5 1.0097656 C 7.89874 1.0287656 8.28428 1.1638556 8.5625 1.4160156 C 8.84072 1.6681756 9.03125 2.0005156 9.03125 2.5410156 C 9.03125 4.7063156 10.49507 6.0501056 12.03125 6.0097656 C 12.88797 5.9872656 13.7195 5.5328056 14.28125 4.6972656 L 13.71875 3.6972656 C 13.34338 4.6129656 12.6509 4.9926756 12 5.0097656 C 11.03954 5.0349656 10.03125 4.2800156 10.03125 2.5410156 C 10.03125 1.7490456 9.69443 1.0971356 9.21875 0.66601562 C 8.74307 0.23489562 8.13771 0.038635625 7.53125 0.009765625 C 7.37963 0.002765625 7.21393 -0.006734375 7.0625 0.009765625 z M 14 2.0097656 C 14 2.0552656 14.00089 2.0904656 14 2.1347656 L 14.78125 3.5097656 C 14.79265 3.4689656 14.8021 3.4264656 14.8125 3.3847656 L 14 2.0097656 z M 14 2.3535156 C 13.994 2.4595056 13.97975 2.5673756 13.96875 2.6660156 L 14.6875 3.8847656 C 14.7109 3.8222656 14.729 3.7624356 14.75 3.6972656 L 14 2.3535156 z M 13.9375 2.8535156 C 13.9237 2.9434156 13.8931 3.0201056 13.875 3.1035156 L 14.53125 4.2285156 C 14.56055 4.1676156 14.5983 4.1049256 14.625 4.0410156 L 13.9375 2.8535156 z M 13.84375 3.2910156 C 13.82005 3.3799156 13.7783 3.4600056 13.75 3.5410156 L 14.34375 4.5722656 C 14.38385 4.5071656 14.43175 4.4540656 14.46875 4.3847656 L 13.84375 3.2910156 z "
     />
</svg>

<svg xmlns="http://www.w3.org/2000/svg" viewBox="0 0 16 16">
  <path fill="#bebebe" d="M7.063.01c-.455.05-.884.221-1.25.5C5.324.88 5 1.465 5 2.197V6.01H2.727A.725.725 0 0 0 2 6.736v6.545c0 .403.324.729.727.729h5.546A.726.726 0 0 0 9 13.28V6.736a.725.725 0 0 0-.727-.726H6V2.197c0-.449.172-.704.438-.906.265-.202.663-.3 1.062-.281.399.019.784.154 1.063.406.278.252.468.585.468 1.125 0 2.165 1.464 3.51 3 3.469.857-.023 1.688-.477 2.25-1.313l-.562-1C13.343 4.613 12.65 4.993 12 5.01c-.96.025-1.969-.73-1.969-2.469 0-.792-.337-1.444-.812-1.875C8.743.235 8.138.039 7.53.01c-.151-.007-.317-.017-.468 0zm6.937 2v.125l.781 1.375c.012-.041.021-.084.031-.125L14 2.01zm0 .344c-.006.106-.02.213-.031.312l.719 1.219c.023-.063.041-.123.062-.188L14 2.354zm-.063.5c-.013.09-.044.166-.062.25l.656 1.125c.03-.061.067-.124.094-.188l-.688-1.187zm-.093.437c-.024.089-.066.169-.094.25l.594 1.031c.04-.065.088-.118.125-.187l-.625-1.094z"/>
</svg>
